assets/icons/lib/help.svg

<svg class="Icon Icon-help" width="24" height="24" viewBox="0 0 24 24" fill="none" xmlns="http://www.w3.org/2000/svg">
<path fill-rule="evenodd" clip-rule="evenodd" d="M12 3C9.85359 3 7.8096 3.78781 6.31432 5.16807C5.16599 6.22806 4.41475 7.568 4.12929 9H6C6.79565 9 7.55871 9.31607 8.12132 9.87868C8.68393 10.4413 9 11.2044 9 12V15C9 15.7956 8.68393 16.5587 8.12132 17.1213C7.55871 17.6839 6.79565 18 6 18H5C4.20435 18 3.44129 17.6839 2.87868 17.1213C2.31607 16.5587 2 15.7956 2 15V10C2 9.94597 2.00428 9.89294 2.01253 9.84124C2.13752 7.51765 3.1924 5.32802 4.95776 3.69846C6.83813 1.96273 9.37252 1 12 1C14.6275 1 17.1619 1.96273 19.0422 3.69846C20.8076 5.32802 21.8625 7.51765 21.9875 9.84125C21.9957 9.89295 22 9.94597 22 10V15C22 15.0206 21.9998 15.0412 21.9994 15.0617C21.9492 18.4828 19.6334 20.7077 17.4401 21.7834C16.388 22.2993 14.1535 23.3951 10.8387 22.8532C10.2936 22.7641 9.924 22.25 10.0131 21.705C10.1022 21.1599 10.6163 20.7903 11.1613 20.8794C13.8461 21.3183 15.6112 20.4528 16.5595 19.9877C17.4829 19.5348 18.3617 18.8701 19 18C19 18 19 18 19 18H18C17.2043 18 16.4413 17.6839 15.8787 17.1213C15.3161 16.5587 15 15.7957 15 15V12C15 11.2043 15.3161 10.4413 15.8787 9.87868C16.4413 9.31607 17.2043 9 18 9H19.8707C19.5852 7.568 18.834 6.22806 17.6857 5.16807C16.1904 3.78781 14.1464 3 12 3ZM20 11H18C17.7348 11 17.4804 11.1054 17.2929 11.2929C17.1054 11.4804 17 11.7348 17 12V15C17 15.2652 17.1054 15.5196 17.2929 15.7071C17.4804 15.8946 17.7348 16 18 16H19C19.2652 16 19.5196 15.8946 19.7071 15.7071C19.8886 15.5256 19.9932 15.2814 19.9997 15.0254C19.9998 15.0157 19.9999 15.0059 20 14.9961V11ZM4 11V15C4 15.2652 4.10536 15.5196 4.29289 15.7071C4.48043 15.8946 4.73478 16 5 16H6C6.26522 16 6.51957 15.8946 6.70711 15.7071C6.89464 15.5196 7 15.2652 7 15V12C7 11.7348 6.89464 11.4804 6.70711 11.2929C6.51957 11.1054 6.26522 11 6 11H4Z" fill="currentColor"/>
</svg>

<svg class="Icon Icon-help" viewBox="0 0 24 24" fill="none" xmlns="http://www.w3.org/2000/svg"><path fill-rule="evenodd" clip-rule="evenodd" d="M12 3c-2.146 0-4.19.788-5.686 2.168-1.148 1.06-1.9 2.4-2.185 3.832H6a3 3 0 0 1 3 3v3a3 3 0 0 1-3 3H5a3 3 0 0 1-3-3v-5c0-.054.004-.107.013-.159.125-2.323 1.18-4.513 2.945-6.143C6.838 1.963 9.373 1 12 1s5.162.963 7.042 2.698c1.766 1.63 2.82 3.82 2.945 6.143.009.052.013.105.013.159v5.062c-.05 3.42-2.367 5.646-4.56 6.721-1.052.516-3.287 1.612-6.601 1.07a1 1 0 1 1 .322-1.974c2.685.44 4.45-.426 5.399-.891.923-.453 1.802-1.118 2.44-1.988h-1a3 3 0 0 1-3-3v-3a3 3 0 0 1 3-3h1.87c-.285-1.432-1.036-2.772-2.184-3.832C16.19 3.788 14.146 3 12 3Zm8 8h-2a1 1 0 0 0-1 1v3a1 1 0 0 0 1 1h1a1 1 0 0 0 1-1.004V11ZM4 11v4a1 1 0 0 0 1 1h1a1 1 0 0 0 1-1v-3a1 1 0 0 0-1-1H4Z" fill="currentColor"/></svg>
